color/svg/E047.svg

<svg id="emoji" viewBox="0 0 72 72" xmlns="http://www.w3.org/2000/svg">
  <g id="color">
    <path fill="#B1CC33" fill-rule="evenodd" d="M20.653 28.0593C11.3028 33.3972 5 43.4626 5 55C5 55.3346 5.0053 55.668 5.01582 56H66.9842C66.9947 55.668 67 55.3346 67 55C67 43.4626 60.6972 33.3972 51.347 28.0593L56.2 19.6536C56.7523 18.697 56.4245 17.4738 55.4679 16.9215C54.5114 16.3693 53.2882 16.697 52.7359 17.6536L47.7431 26.3014C44.1212 24.8179 40.1561 24 36 24C31.8439 24 27.8788 24.8179 24.257 26.3014L19.2641 17.6536C18.7118 16.697 17.4886 16.3692 16.5321 16.9215C15.5755 17.4738 15.2477 18.697 15.8 19.6536L20.653 28.0593Z" clip-rule="evenodd"/>
  </g>
  <g id="line">
    <path fill="#000" d="M20.653 27.0593L21.1488 27.9277C21.3799 27.7958 21.5489 27.5773 21.6183 27.3205C21.6878 27.0636 21.6521 26.7897 21.5191 26.5593L20.653 27.0593ZM5.01582 55L4.01633 55.0317C4.03343 55.5714 4.47587 56 5.01582 56V55ZM66.9842 55V56C67.5241 56 67.9666 55.5714 67.9837 55.0317L66.9842 55ZM51.347 27.0593L50.4809 26.5593C50.3479 26.7897 50.3122 27.0636 50.3817 27.3205C50.4512 27.5773 50.6201 27.7958 50.8512 27.9277L51.347 27.0593ZM56.2 18.6536L57.066 19.1536L57.066 19.1536L56.2 18.6536ZM55.4679 15.9215L55.9679 15.0555L55.4679 15.9215ZM52.7359 16.6536L51.8699 16.1536L51.8699 16.1536L52.7359 16.6536ZM47.7431 25.3014L47.364 26.2268C47.827 26.4165 48.3589 26.2348 48.6091 25.8014L47.7431 25.3014ZM24.257 25.3014L23.3909 25.8014C23.6411 26.2347 24.173 26.4165 24.636 26.2268L24.257 25.3014ZM19.2641 16.6536L18.3981 17.1536L18.3981 17.1536L19.2641 16.6536ZM16.5321 15.9215L16.0321 15.0555L16.0321 15.0555L16.5321 15.9215ZM15.8 18.6536L14.934 19.1536L14.934 19.1536L15.8 18.6536ZM6 54C6 42.836 12.0976 33.095 21.1488 27.9277L20.1573 26.1908C10.508 31.6995 4 42.0891 4 54H6ZM6.01532 54.9683C6.00513 54.6468 6 54.324 6 54H4C4 54.3452 4.00547 54.6891 4.01633 55.0317L6.01532 54.9683ZM66.9842 54H5.01582V56H66.9842V54ZM66 54C66 54.324 65.9949 54.6468 65.9847 54.9683L67.9837 55.0317C67.9945 54.6891 68 54.3452 68 54H66ZM50.8512 27.9277C59.9024 33.095 66 42.836 66 54H68C68 42.0891 61.492 31.6995 51.8427 26.1909L50.8512 27.9277ZM55.334 18.1536L50.4809 26.5593L52.213 27.5593L57.066 19.1536L55.334 18.1536ZM54.9679 16.7876C55.4462 17.0637 55.6101 17.6753 55.334 18.1536L57.066 19.1536C57.8945 17.7187 57.4028 15.8839 55.9679 15.0555L54.9679 16.7876ZM53.6019 17.1536C53.8781 16.6753 54.4897 16.5114 54.9679 16.7876L55.9679 15.0555C54.5331 14.2271 52.6983 14.7187 51.8699 16.1536L53.6019 17.1536ZM48.6091 25.8014L53.6019 17.1536L51.8699 16.1536L46.877 24.8014L48.6091 25.8014ZM36 24C40.0239 24 43.8603 24.7917 47.364 26.2268L48.1221 24.3761C44.382 22.8441 40.2883 22 36 22V24ZM24.636 26.2268C28.1397 24.7917 31.9761 24 36 24V22C31.7117 22 27.618 22.8441 23.8779 24.3761L24.636 26.2268ZM25.123 24.8014L20.1301 16.1536L18.3981 17.1536L23.3909 25.8014L25.123 24.8014ZM20.1301 16.1536C19.3017 14.7187 17.4669 14.2271 16.0321 15.0555L17.032 16.7876C17.5103 16.5114 18.1219 16.6753 18.3981 17.1536L20.1301 16.1536ZM16.0321 15.0555C14.5972 15.8839 14.1055 17.7187 14.934 19.1536L16.666 18.1536C16.3899 17.6753 16.5538 17.0637 17.0321 16.7876L16.0321 15.0555ZM14.934 19.1536L19.787 27.5593L21.5191 26.5593L16.666 18.1536L14.934 19.1536Z"/>
    <circle cx="22.5" cy="42.5" r="2.5" fill="#000"/>
    <circle cx="49.5" cy="42.5" r="2.5" fill="#000"/>
  </g>
</svg>

<svg viewBox="0 0 72 72" xmlns="http://www.w3.org/2000/svg">
  <path fill="#B3B3B3" d="M68 4v64H4V4h64zm4-4H0v72h72V0z"/>
  <path fill="none" stroke="#00A5FF" stroke-miterlimit="10" stroke-width="0.1" d="M12.923 10.958h46.154A1.923 1.923 0 0161 12.881v46.154a1.923 1.923 0 01-1.923 1.923H12.923A1.923 1.923 0 0111 59.035V12.881a1.923 1.923 0 011.923-1.923v0z"/>
  <path fill="none" stroke="#00A5FF" stroke-miterlimit="10" stroke-width="0.1" d="M53.746 4H18.254A2.254 2.254 0 0016 6.254v59.492A2.254 2.254 0 0018.254 68h35.492A2.254 2.254 0 0056 65.746V6.254A2.254 2.254 0 0053.746 4z"/>
  <path fill="none" stroke="#00A5FF" stroke-miterlimit="10" stroke-width="0.1" d="M68 53.746V18.254A2.254 2.254 0 0065.746 16H6.254A2.254 2.254 0 004 18.254v35.492A2.254 2.254 0 006.254 56h59.492A2.254 2.254 0 0068 53.746z"/>
  <path fill="none" stroke="#00A5FF" stroke-miterlimit="10" stroke-width="0.1" d="M36 65c16.016 0 29-12.984 29-29S52.016 7 36 7 7 19.984 7 36s12.984 29 29 29z"/>
  <g fill="none" stroke="#fff" stroke-linecap="round" stroke-linejoin="round" stroke-miterlimit="10" stroke-width="6">
    <path d="M20.653 27.06l.496.868a1 1 0 00.37-1.369l-.866.5zM5.016 55l-1 .032a1 1 0 001 .968v-1zm61.968 0v1a1 1 0 001-.968l-1-.032zM51.347 27.06l-.866-.5a1 1 0 00.37 1.368l.496-.869zm4.853-8.406l.866.5h0l-.866-.5zm-.732-2.732l.5-.867-.5.867zm-2.732.732l-.866-.5h0l.866.5zM47.743 25.3l-.379.926a1 1 0 001.245-.426l-.866-.5zm-23.486 0l-.866.5a1 1 0 001.245.426l-.379-.926zm-4.993-8.647l-.866.5h0l.866-.5zm-2.732-.732l-.5-.867h0l.5.867zm-.732 2.732l-.866.5h0l.866-.5zM6 54c0-11.164 6.098-20.905 15.149-26.072l-.992-1.737C10.508 31.7 4 42.089 4 54h2zm.015.968C6.005 54.647 6 54.324 6 54H4c0 .345.005.69.016 1.032l2-.064zM66.985 54H5.014v2h61.97v-2zM66 54c0 .324-.005.647-.015.968l1.999.064c.01-.343.016-.687.016-1.032h-2zM50.851 27.928C59.902 33.095 66 42.836 66 54h2c0-11.91-6.508-22.3-16.157-27.81l-.992 1.738zm4.483-9.774l-4.853 8.405 1.732 1 4.853-8.405-1.732-1zm-.366-1.366a1 1 0 01.366 1.366l1.732 1a3 3 0 00-1.098-4.098l-1 1.732zm-1.366.366a1 1 0 011.366-.366l1-1.732a3 3 0 00-4.098 1.098l1.732 1zM48.609 25.8l4.993-8.647-1.732-1-4.993 8.647 1.732 1zM36 24c4.024 0 7.86.792 11.364 2.227l.758-1.85A31.91 31.91 0 0036 22v2zm-11.364 2.227A29.911 29.911 0 0136 24v-2a31.91 31.91 0 00-12.122 2.376l.758 1.85zm.487-1.426l-4.993-8.647-1.732 1 4.993 8.647 1.732-1zm-4.993-8.647a3 3 0 00-4.098-1.098l1 1.732a1 1 0 011.366.366l1.732-1zm-4.098-1.098a3 3 0 00-1.098 4.098l1.732-1a1 1 0 01.366-1.366l-1-1.732zm-1.098 4.098l4.853 8.405 1.732-1-4.853-8.405-1.732 1z"/>
    <circle cx="22.5" cy="42.5" r="2.5"/>
    <circle cx="49.5" cy="42.5" r="2.5"/>
  </g>
  <path fill="#B1CC33" fill-rule="evenodd" d="M20.653 28.06C11.303 33.396 5 43.462 5 55c0 .335.005.668.016 1h61.968c.01-.332.016-.665.016-1 0-11.537-6.303-21.603-15.653-26.94l4.853-8.406a2 2 0 00-3.464-2L47.743 26.3A30.912 30.912 0 0036 24a30.91 30.91 0 00-11.743 2.301l-4.993-8.647a2 2 0 10-3.464 2l4.853 8.405z" clip-rule="evenodd"/>
  <path d="M20.653 27.06l.496.868a1 1 0 00.37-1.369l-.866.5zM5.016 55l-1 .032a1 1 0 001 .968v-1zm61.968 0v1a1 1 0 001-.968l-1-.032zM51.347 27.06l-.866-.5a1 1 0 00.37 1.368l.496-.869zm4.853-8.406l.866.5-.866-.5zm-.732-2.732l.5-.867-.5.867zm-2.732.732l-.866-.5.866.5zM47.743 25.3l-.379.926a1 1 0 001.245-.426l-.866-.5zm-23.486 0l-.866.5a1 1 0 001.245.426l-.379-.926zm-4.993-8.647l-.866.5.866-.5zm-2.732-.732l-.5-.867.5.867zm-.732 2.732l-.866.5.866-.5zM6 54c0-11.164 6.098-20.905 15.149-26.072l-.992-1.737C10.508 31.7 4 42.089 4 54h2zm.015.968C6.005 54.647 6 54.324 6 54H4c0 .345.005.69.016 1.032l2-.064zM66.985 54H5.014v2h61.97v-2zM66 54c0 .324-.005.647-.015.968l1.999.064c.01-.343.016-.687.016-1.032h-2zM50.851 27.928C59.902 33.095 66 42.836 66 54h2c0-11.91-6.508-22.3-16.157-27.81l-.992 1.738zm4.483-9.774l-4.853 8.405 1.732 1 4.853-8.405-1.732-1zm-.366-1.366a1 1 0 01.366 1.366l1.732 1a3 3 0 00-1.098-4.098l-1 1.732zm-1.366.366a1 1 0 011.366-.366l1-1.732a3 3 0 00-4.098 1.098l1.732 1zM48.609 25.8l4.993-8.647-1.732-1-4.993 8.647 1.732 1zM36 24c4.024 0 7.86.792 11.364 2.227l.758-1.85A31.91 31.91 0 0036 22v2zm-11.364 2.227A29.911 29.911 0 0136 24v-2a31.91 31.91 0 00-12.122 2.376l.758 1.85zm.487-1.426l-4.993-8.647-1.732 1 4.993 8.647 1.732-1zm-4.993-8.647a3 3 0 00-4.098-1.098l1 1.732a1 1 0 011.366.366l1.732-1zm-4.098-1.098a3 3 0 00-1.098 4.098l1.732-1a1 1 0 01.366-1.366l-1-1.732zm-1.098 4.098l4.853 8.405 1.732-1-4.853-8.405-1.732 1z"/>
  <circle cx="22.5" cy="42.5" r="2.5"/>
  <circle cx="49.5" cy="42.5" r="2.5"/>
</svg>
